X: 15982
T: Gravel Path, The
R: reel
M: 4/4
K: Bdorian
|:B2 fB cBfB|~B2 fB cBAc|B2 fB cBfe|gbaf ecAc:|
B2 bB aBgB|(3BBB af ecAc|B2 bB aBgb|afed cBAc|
B2 bB aBgB|(3BBB af ecAc|fb (3bbb bafg|afed cBAc||

